X:1
T:Title
%%score { ( 1 4 ) | ( 2 3 ) }
L:1/8
M:4/4
K:F
V:1 treble nm="Grand Piano"
V:4 treble 
V:2 bass 
V:3 bass 
V:1
 z4 z2[Q:1/4=100] AB | c2 A2 G2 A2 | F4[K:bass] [A,C]2 .[F,CF]2 | %3
 [F,B,D]2[K:treble] [B,DF]2 [DFB]2 [FBd]2 | [FAc]6 z2 | c2 A2 G2 A2 | F4 [A,C]2 A2 | %7
 [CEG]2 [EGc]2 [G=Be]2 [FBd]2 | [Ec]6 c2 | [GB]2 [GB]2 [GB][FA][EG][Bd] | [Ac]4 A2 A=B | %11
 c2 c2 =B2 B2 |[M:9/8] A3- A c2- c [Ec]2 |[M:4/4] d2 c2 A2 GF | %14
[M:9/8] [DF]3- [DF] [Fd]2- [Fd] [F^c]2 |[M:4/4] [Fc]2 [Fc]2 [F=B]2 [FB]2 |[M:7/8] B-B-B- B- B3 | %17
[M:1/4] c2 |[M:4/4] [CFAc]3 [Ad] [CFAc]2 [CFA]2 | [CEBc]2 [CEBc]4 [CEA][B,EG] | %20
 [A,DF]2 [A,EG]2 [A,FA]2 [DF=B]2 | c6 z2 | [FAcf]2 [CFAc]2 [C_EA]2 .[A,EG]2 |[M:9/8] .d6 z3 | %24
[M:17/16] [Fc]-<[Fc].[Fd]3/2 z [B,EG]/-[B,EG]/-[B,EG]-<[B,EG][A,CF] |[M:3/4] [A,CF]6 |] %26
V:2
 z8 | F,,2 C,2 [E,B,]2 C,2 | F,,2 C,2 F,2 z E | z2 F,2 B,2 F,2 | F,,2 C,2 F,2 C,2 | %5
 F,,2 C,2 [E,B,]2 C,2 | F,,2 C,2 F,2 C,2 | G,,2 G,2 G,2 G,2 | [C,G,]6 [C,C]2 | %9
 [C,C]2 [C,C]2 [C,C]2 [C,C]2 | [F,C]4 [F,CF]2 [F,A,_E]2 | [E,A,E]2 [E,A,E]2 [E,_A,E]2 [E,DE]2 | %12
[M:9/8] E6- E/ z/ z z |[M:4/4] [F,A,F]2 [F,A,F]2 [F,C_E]2 [F,A,E]2 | %14
[M:9/8] [B,,B,]3- [B,,B,] [B,,B,]2- [B,,B,] [=B,,_A,]2 |[M:4/4] [C,A,]2 [C,A,]2 [C,_A,]2 [C,A,]2 | %16
[M:7/8] G,- G,3 z z2 |[M:1/4] C2 |[M:4/4] [F,,F,]2 z [DF] [F,,F,]2 [C,,C,]2 | %19
 [G,,G,]2 [C,,C,]2 [G,,G,]2 [C,,C,]2 | [D,,D,]2 [D,,D,]2 [D,,D,]2 [G,,G,]2 | %21
 [C,,C,]2 [B,,B,]2 [A,,A,]2 [G,,G,]2 | [F,,F,]2 C,2 F,2 z F | %23
[M:9/8] [B,,B,]2 [A,,A,]- [A,,A,] [G,,G,]2- [G,,G,] [B,,G,]2 | %24
[M:17/16] [C,A,]-<[C,A,].[C,A,]3/2 z C,/-C,/-C,-<C,F,, |[M:3/4] F,,6 |] %26
V:3
 x8 | x8 | z4 z2 A,,2 | B,,8 | x8 | x8 | x8 | x8 | x8 | x8 | x8 | x8 | %12
[M:9/8] [A,C]3- [A,C] [G,B,]2- [G,B,] [C,B,]2 |[M:4/4] x8 |[M:9/8] x9 |[M:4/4] x8 | %16
[M:7/8] C,- C,3- [C,C]2- [C,C-]/C/ |[M:1/4] x2 |[M:4/4] z2 [C,,C,]2 z4 | x8 | x8 | x8 | %22
 z4 z2 F,,2 |[M:9/8] x9 |[M:17/16] x17/2 |[M:3/4] x6 |] %26
V:4
 x8 | x8 | x4[K:bass] x4 | x2[K:treble] x6 | z4 A,2 AB | x8 | x8 | x8 | x8 | x8 | x8 | x8 | %12
[M:9/8] x9 |[M:4/4] x8 |[M:9/8] x9 |[M:4/4] x8 |[M:7/8] F2 E D E3 |[M:1/4] x2 |[M:4/4] x8 | x8 | %20
 x8 | [CE]2 [CEG]2 [CF]2 [CEBc]2 | x8 |[M:9/8] [DF]2 [D^F]- [DF] [DGB]2- [DGB] [DG]2 | %24
[M:17/16] x17/2 |[M:3/4] x6 |] %26

